X:1
T:Eske Side
T:Eske Side
T:James Oswald
C:James Oswald
L:1/8
M:3/4
K:D
V:1 treble 
V:1
 A2 | d4 (d/e/)f |{f} e2 (dc)(BA) | (B2 c2) d2 |{F} TE4 D2 | (FG) A2 B2 | A4 B2 | d3 efg | %8
{f} e4 (d>e) | (f>g)(f>e)(d>c) | (B2 c2) d2 | A2 (BA)(GF) |{F} TE4 D2 | D2 F2 A2 | (=c2 B2) d2 | %15
 A2 (a<f) (e>f) | d4 :: (fg) | a4 (g/a/)b | a2 (gf)(ef) | d3 efg |{fg} a4 d2 | c2 B2 c2 | %23
{f} e2 (ec)(BA) | g2 (a>g)(f>g) |{f} e4 d>e | fg a2 b2 | a3 d b>a | a3 fga |{ga} b4 a2 | %30
 (ba)(gf)(ed) | (B2 c2) d2 |{B} A2 (GF)(EF) | D4 :| %34

